app/assets/images/50percent-logo-white.svg

<?xml version="1.0" encoding="UTF-8"?>
<svg width="858px" height="114px" viewBox="0 0 858 114" version="1.1" xmlns="http://www.w3.org/2000/svg" xmlns:xlink="http://www.w3.org/1999/xlink">
    <!-- Generator: Sketch 52.6 (67491) - http://www.bohemiancoding.com/sketch -->
    <title>logo experiments copy 2</title>
    <desc>Created with Sketch.</desc>
    <g id="Page-1" stroke="none" stroke-width="1" fill="none" fill-rule="evenodd">
        <g id="final-logos-for-export" transform="translate(-156.000000, -1243.000000)">
            <g id="white" transform="translate(153.000000, 1207.000000)">
                <g id="logo-white" transform="translate(83.000000, 43.000000)">
                    <circle id="path4761-copy" stroke="#FFFFFF" stroke-width="14" opacity="0.462820871" stroke-linecap="round" stroke-linejoin="round" cx="70" cy="49" r="49"></circle>
                    <path d="M75.5625,15.8984375 C48.5005473,15.8984375 26.5625,37.8364848 26.5625,64.8984375 C26.5625,91.9603902 48.5005473,113.898438 75.5625,113.898438" id="Path" stroke="#FFFFFF" stroke-width="14" stroke-linejoin="round" transform="translate(51.062500, 64.898438) rotate(-40.000000) translate(-51.062500, -64.898438) "></path>
                    <path d="M9.5,106.634766 C19.6999992,96.8449356 24.3999985,87.605085 24.3999985,77.815625 C34.6000015,87.605085 55,97.394545 55,97.394545 C55,97.394545 29.8999985,106.634766 9.5,106.634766 Z" id="path4757" fill="#FFFFFF"></path>
                </g>
                <path d="M37.65,81.85 C52.650075,81.85 63.6749648,84.6749717 70.725,90.325 C77.7750352,95.9750283 81.3,103.699951 81.3,113.5 C81.3,119.700031 79.8250147,125.274975 76.875,130.225 C73.9249852,135.175025 69.4750298,139.074986 63.525,141.925 C57.5749702,144.775014 50.2500435,146.2 41.55,146.2 C34.149963,146.2 27.0000345,145.075011 20.1,142.825 C13.1999655,140.574989 7.5000225,137.45002 3,133.45 L9.9,121.6 C13.500018,125.000017 18.099972,127.72499 23.7,129.775 C29.300028,131.82501 35.199969,132.85 41.4,132.85 C49.3000395,132.85 55.4249782,131.175017 59.775,127.825 C64.1250218,124.474983 66.3,119.900029 66.3,114.1 C66.3,107.799969 63.900024,103.025016 59.1,99.775 C54.299976,96.5249838 46.100058,94.9 34.5,94.9 L10.65,94.9 L16.2,40 L75.45,40 L75.45,53.05 L28.8,53.05 L25.95,81.85 L37.65,81.85 Z" id="5" fill="#FFFFFF"></path>
                <path d="M322.125,40 C335.725068,40 346.424961,43.2499675 354.225,49.75 C362.025039,56.2500325 365.925,65.199943 365.925,76.6 C365.925,88.000057 362.025039,96.9499675 354.225,103.45 C346.424961,109.950032 335.725068,113.2 322.125,113.2 L296.175,113.2 L296.175,145 L281.175,145 L281.175,40 L322.125,40 Z M321.675,100.15 C331.175048,100.15 338.424975,98.1250203 343.425,94.075 C348.425025,90.0249797 350.925,84.200038 350.925,76.6 C350.925,68.999962 348.425025,63.1750202 343.425,59.125 C338.424975,55.0749798 331.175048,53.05 321.675,53.05 L296.175,53.05 L296.175,100.15 L321.675,100.15 Z M457.425,105.7 C457.425,106.800005 457.325001,108.249991 457.125,110.05 L392.625,110.05 C393.525004,117.050035 396.599974,122.674979 401.85,126.925 C407.100026,131.175021 413.624961,133.3 421.425,133.3 C430.925048,133.3 438.574971,130.100032 444.375,123.7 L452.325,133 C448.724982,137.200021 444.250027,140.399989 438.9,142.6 C433.549973,144.800011 427.575033,145.9 420.975,145.9 C412.574958,145.9 405.125032,144.175017 398.625,140.725 C392.124967,137.274983 387.100018,132.450031 383.55,126.25 C379.999982,120.049969 378.225,113.050039 378.225,105.25 C378.225,97.5499615 379.949983,90.600031 383.4,84.4 C386.850017,78.199969 391.59997,73.3750173 397.65,69.925 C403.70003,66.4749828 410.524962,64.75 418.125,64.75 C425.725038,64.75 432.49997,66.4749828 438.45,69.925 C444.40003,73.3750173 449.049983,78.199969 452.4,84.4 C455.750017,90.600031 457.425,97.69996 457.425,105.7 Z M418.125,76.9 C411.224965,76.9 405.450023,78.999979 400.8,83.2 C396.149977,87.400021 393.425004,92.899966 392.625,99.7 L443.625,99.7 C442.824996,92.9999665 440.100023,87.5250213 435.45,83.275 C430.799977,79.0249788 425.025034,76.9 418.125,76.9 Z M491.175,78.85 C493.675012,74.249977 497.374975,70.750012 502.275,68.35 C507.175024,65.949988 513.124965,64.75 520.125,64.75 L520.125,78.7 C519.324996,78.5999995 518.225007,78.55 516.825,78.55 C509.024961,78.55 502.900022,80.8749768 498.45,85.525 C493.999978,90.1750233 491.775,96.799957 491.775,105.4 L491.775,145 L477.375,145 L477.375,65.5 L491.175,65.5 L491.175,78.85 Z M571.725,145.9 C563.624959,145.9 556.400032,144.150017 550.05,140.65 C543.699968,137.149982 538.725018,132.325031 535.125,126.175 C531.524982,120.024969 529.725,113.050039 529.725,105.25 C529.725,97.449961 531.524982,90.4750308 535.125,84.325 C538.725018,78.1749693 543.699968,73.3750173 550.05,69.925 C556.400032,66.4749828 563.624959,64.75 571.725,64.75 C578.925036,64.75 585.349972,66.1999855 591,69.1 C596.650028,72.0000145 601.024984,76.1999725 604.125,81.7 L593.175,88.75 C590.674987,84.949981 587.575018,82.1000095 583.875,80.2 C580.174981,78.2999905 576.075022,77.35 571.575,77.35 C566.374974,77.35 561.700021,78.4999885 557.55,80.8 C553.399979,83.1000115 550.150012,86.3749787 547.8,90.625 C545.449988,94.8750213 544.275,99.7499725 544.275,105.25 C544.275,110.850028 545.449988,115.774979 547.8,120.025 C550.150012,124.275021 553.399979,127.549989 557.55,129.85 C561.700021,132.150012 566.374974,133.3 571.575,133.3 C576.075022,133.3 580.174981,132.350009 583.875,130.45 C587.575018,128.549991 590.674987,125.700019 593.175,121.9 L604.125,128.8 C601.024984,134.300027 596.650028,138.524985 591,141.475 C585.349972,144.425015 578.925036,145.9 571.725,145.9 Z M693.375,105.7 C693.375,106.800005 693.275001,108.249991 693.075,110.05 L628.575,110.05 C629.475004,117.050035 632.549974,122.674979 637.8,126.925 C643.050026,131.175021 649.574961,133.3 657.375,133.3 C666.875047,133.3 674.524971,130.100032 680.325,123.7 L688.275,133 C684.674982,137.200021 680.200027,140.399989 674.85,142.6 C669.499973,144.800011 663.525033,145.9 656.925,145.9 C648.524958,145.9 641.075032,144.175017 634.575,140.725 C628.074967,137.274983 623.050018,132.450031 619.5,126.25 C615.949982,120.049969 614.175,113.050039 614.175,105.25 C614.175,97.5499615 615.899983,90.600031 619.35,84.4 C622.800017,78.199969 627.54997,73.3750173 633.6,69.925 C639.65003,66.4749828 646.474962,64.75 654.075,64.75 C661.675038,64.75 668.44997,66.4749828 674.4,69.925 C680.35003,73.3750173 684.999983,78.199969 688.35,84.4 C691.700017,90.600031 693.375,97.69996 693.375,105.7 Z M654.075,76.9 C647.174965,76.9 641.400023,78.999979 636.75,83.2 C632.099977,87.400021 629.375004,92.899966 628.575,99.7 L679.575,99.7 C678.774996,92.9999665 676.050023,87.5250213 671.4,83.275 C666.749977,79.0249788 660.975034,76.9 654.075,76.9 Z M755.775,64.75 C765.87505,64.75 773.89997,67.6749707 779.85,73.525 C785.80003,79.3750293 788.775,87.9499435 788.775,99.25 L788.775,145 L774.375,145 L774.375,100.9 C774.375,93.1999615 772.525018,87.4000195 768.825,83.5 C765.124981,79.5999805 759.825034,77.65 752.925,77.65 C745.124961,77.65 738.975022,79.9249772 734.475,84.475 C729.974978,89.0250228 727.725,95.5499575 727.725,104.05 L727.725,145 L713.325,145 L713.325,65.5 L727.125,65.5 L727.125,77.5 C730.025014,73.3999795 733.949975,70.250011 738.9,68.05 C743.850025,65.849989 749.474968,64.75 755.775,64.75 Z M860.175,140.35 C858.074989,142.150009 855.475015,143.524995 852.375,144.475 C849.274984,145.425005 846.075016,145.9 842.775,145.9 C834.77496,145.9 828.575022,143.750022 824.175,139.45 C819.774978,135.149979 817.575,129.00004 817.575,121 L817.575,77.35 L804.075,77.35 L804.075,65.5 L817.575,65.5 L817.575,48.1 L831.975,48.1 L831.975,65.5 L854.775,65.5 L854.775,77.35 L831.975,77.35 L831.975,120.4 C831.975,124.700022 833.049989,127.999989 835.2,130.3 C837.350011,132.600011 840.42498,133.75 844.425,133.75 C848.825022,133.75 852.574984,132.500012 855.675,130 L860.175,140.35 Z" id="Percent" fill="#FFFFFF"></path>
            </g>
        </g>
    </g>
</svg>

<svg width="858px" height="114px" version="1.1" viewBox="0 0 858 114" xmlns="http://www.w3.org/2000/svg"><title>logo experiments copy 2</title><desc>Created with Sketch.</desc><g fill="none" fill-rule="evenodd"><g transform="translate(-156 -1243)"><g transform="translate(153 1207)"><g transform="translate(83 43)"><circle cx="70" cy="49" r="49" opacity=".46282" stroke="#fff" stroke-linecap="round" stroke-linejoin="round" stroke-width="14"/><path transform="translate(51.062 64.898) rotate(-40) translate(-51.062 -64.898)" d="m75.562 15.898c-27.062 0-49 21.938-49 49s21.938 49 49 49" stroke="#fff" stroke-linejoin="round" stroke-width="14"/><path d="m9.5 106.63c10.2-9.7898 14.9-19.03 14.9-28.819 10.2 9.7895 30.6 19.579 30.6 19.579s-25.1 9.2402-45.5 9.2402z" fill="#fff"/></g><path d="m37.65 81.85c15 0 26.025 2.825 33.075 8.475s10.575 13.375 10.575 23.175c0 6.2-1.475 11.775-4.425 16.725-2.95 4.95-7.4 8.85-13.35 11.7s-13.275 4.275-21.975 4.275c-7.4 0-14.55-1.125-21.45-3.375s-12.6-5.375-17.1-9.375l6.9-11.85c3.6 3.4 8.2 6.125 13.8 8.175s11.5 3.075 17.7 3.075c7.9 0 14.025-1.675 18.375-5.025s6.525-7.925 6.525-13.725c0-6.3-2.4-11.075-7.2-14.325-4.8-3.25-13-4.875-24.6-4.875h-23.85l5.55-54.9h59.25v13.05h-46.65l-2.85 28.8h11.7z" fill="#fff"/><path d="m322.12 40c13.6 0 24.3 3.25 32.1 9.75s11.7 15.45 11.7 26.85-3.9 20.35-11.7 26.85c-7.8 6.5-18.5 9.75-32.1 9.75h-25.95v31.8h-15v-105h40.95zm-0.45 60.15c9.5 0 16.75-2.025 21.75-6.075s7.5-9.875 7.5-17.475-2.5-13.425-7.5-17.475-12.25-6.075-21.75-6.075h-25.5v47.1h25.5zm135.75 5.55c0 1.1-0.099999 2.55-0.3 4.35h-64.5c0.9 7 3.975 12.625 9.225 16.875s11.775 6.375 19.575 6.375c9.5 0 17.15-3.2 22.95-9.6l7.95 9.3c-3.6 4.2-8.075 7.4-13.425 9.6s-11.325 3.3-17.925 3.3c-8.4 0-15.85-1.725-22.35-5.175-6.5-3.45-11.525-8.275-15.075-14.475s-5.325-13.2-5.325-21c0-7.7 1.725-14.65 5.175-20.85s8.2-11.025 14.25-14.475c6.05-3.45 12.875-5.175 20.475-5.175s14.375 1.725 20.325 5.175c5.95 3.45 10.6 8.275 13.95 14.475s5.025 13.3 5.025 21.3zm-39.3-28.8c-6.9 0-12.675 2.1-17.325 6.3s-7.375 9.7-8.175 16.5h51c-0.8-6.7-3.525-12.175-8.175-16.425-4.65-4.25-10.425-6.375-17.325-6.375zm73.05 1.95c2.5-4.6 6.2-8.1 11.1-10.5 4.9-2.4 10.85-3.6 17.85-3.6v13.95c-0.8-0.1-1.9-0.15-3.3-0.15-7.8 0-13.925 2.325-18.375 6.975-4.45 4.65-6.675 11.275-6.675 19.875v39.6h-14.4v-79.5h13.8v13.35zm80.55 67.05c-8.1 0-15.325-1.75-21.675-5.25-6.35-3.5-11.325-8.325-14.925-14.475s-5.4-13.125-5.4-20.925 1.8-14.775 5.4-20.925c3.6-6.15 8.575-10.95 14.925-14.4 6.35-3.45 13.575-5.175 21.675-5.175 7.2 0 13.625 1.45 19.275 4.35s10.025 7.1 13.125 12.6l-10.95 7.05c-2.5-3.8-5.6-6.65-9.3-8.55-3.7-1.9-7.8-2.85-12.3-2.85-5.2 0-9.875 1.15-14.025 3.45s-7.4 5.575-9.75 9.825-3.525 9.125-3.525 14.625c0 5.6 1.175 10.525 3.525 14.775s5.6 7.525 9.75 9.825c4.15 2.3 8.825 3.45 14.025 3.45 4.5 0 8.6-0.94999 12.3-2.85 3.7-1.9 6.8-4.75 9.3-8.55l10.95 6.9c-3.1 5.5-7.475 9.725-13.125 12.675s-12.075 4.425-19.275 4.425zm121.65-40.2c0 1.1-0.099999 2.55-0.3 4.35h-64.5c0.9 7 3.975 12.625 9.225 16.875s11.775 6.375 19.575 6.375c9.5 0 17.15-3.2 22.95-9.6l7.95 9.3c-3.6 4.2-8.075 7.4-13.425 9.6s-11.325 3.3-17.925 3.3c-8.4 0-15.85-1.725-22.35-5.175-6.5-3.45-11.525-8.275-15.075-14.475s-5.325-13.2-5.325-21c0-7.7 1.725-14.65 5.175-20.85s8.2-11.025 14.25-14.475c6.05-3.45 12.875-5.175 20.475-5.175s14.375 1.725 20.325 5.175c5.95 3.45 10.6 8.275 13.95 14.475s5.025 13.3 5.025 21.3zm-39.3-28.8c-6.9 0-12.675 2.1-17.325 6.3s-7.375 9.7-8.175 16.5h51c-0.8-6.7-3.525-12.175-8.175-16.425-4.65-4.25-10.425-6.375-17.325-6.375zm101.7-12.15c10.1 0 18.125 2.925 24.075 8.775s8.925 14.425 8.925 25.725v45.75h-14.4v-44.1c0-7.7-1.85-13.5-5.55-17.4-3.7-3.9-9-5.85-15.9-5.85-7.8 0-13.95 2.275-18.45 6.825s-6.75 11.075-6.75 19.575v40.95h-14.4v-79.5h13.8v12c2.9-4.1 6.825-7.25 11.775-9.45s10.575-3.3 16.875-3.3zm104.4 75.6c-2.1 1.8-4.7 3.175-7.8 4.125-3.1 0.95-6.3 1.425-9.6 1.425-8 0-14.2-2.15-18.6-6.45-4.4-4.3-6.6-10.45-6.6-18.45v-43.65h-13.5v-11.85h13.5v-17.4h14.4v17.4h22.8v11.85h-22.8v43.05c0 4.3 1.075 7.6 3.225 9.9s5.225 3.45 9.225 3.45c4.4 0 8.15-1.25 11.25-3.75l4.5 10.35z" fill="#fff"/></g></g></g></svg>
